X:2
T:Sailor's Set On Shore
O:John Taggart - New Hampshire Fiddlers' Union
B:Stacy Phillips - Collection of Traditional American Fiddle Tunes, Vol. 1
D:Front Hall Records FHR-204C (1992)
R:Reel
M:C|
L:1/8
K:Gm
|: GA ||\
 "Gm"BAGF DGGB | "F"AFcA "Bb"dF"F"cc | "Gm"BAGF DFGA | "F"BABc "Gm"dgga |
 "Gm"bg"D"a^f gdd=e  | "F"fdcB AFFA  | "Gm"BAGF DFGA | Bd"D7"cA "Gm"BG :|
|: GF ||\
 "Gm"G2gd gagf | "F"F2fc fgfd | "Eb"E2g2 E2ga | "Gm"bg"F"af "Gm"d2ga |
 "Gm"bg"D"a^f gdd=e  | "F"fdcB AFF2  | "Gm"BAGF DFGA | (3Bcd "D7"cA "Gm"BG :|
